svg/fluentui-system-icons/ic_fluent_scan_thumb_up_off_28_filled.svg

<svg width="28" height="28" viewBox="0 0 28 28" fill="none" xmlns="http://www.w3.org/2000/svg">
<path d="M3.28033 2.21967C2.98744 1.92678 2.51257 1.92677 2.21967 2.21967C1.92678 2.51256 1.92677 2.98743 2.21967 3.28033L3.62129 4.68197C3.22865 5.27479 3 5.98569 3 6.75V10.25C3 10.6642 3.33579 11 3.75 11C4.16421 11 4.5 10.6642 4.5 10.25V6.75C4.5 6.40265 4.57871 6.07369 4.71926 5.77997L10.9323 11.9931C10.9061 12.0236 10.8809 12.0525 10.8566 12.0796C10.7067 12.247 10.5905 12.3525 10.5235 12.4087C10.5026 12.4263 10.4864 12.4391 10.4754 12.4476L8.61655 13.5335C7.45749 14.2106 6.95189 15.6196 7.4284 16.8754L7.95404 18.2607C8.25535 19.0548 8.90763 19.6641 9.71919 19.9165L15.1332 21.6004C16.651 22.0725 18.2591 21.3923 18.9919 20.0529L22.2198 23.2808C21.9262 23.4213 21.5973 23.5 21.25 23.5H17.75C17.3358 23.5 17 23.8358 17 24.25C17 24.6642 17.3358 25 17.75 25H21.25C22.0142 25 22.725 24.7714 23.3178 24.3788L24.7194 25.7805C25.0123 26.0734 25.4872 26.0734 25.7801 25.7805C26.073 25.4876 26.073 25.0127 25.7801 24.7198L3.28033 2.21967ZM6.21939 3.03725L7.68211 4.5H10.25C10.6642 4.5 11 4.16421 11 3.75C11 3.33579 10.6642 3 10.25 3H6.75C6.56988 3 6.39273 3.0127 6.21939 3.03725ZM12.4889 9.30687L20.021 16.839L20.6361 14.7647C21.1616 12.9923 19.8178 11.2356 17.9772 11.2356H17.5456C17.6661 10.6927 17.7703 10.0578 17.7593 9.49102C17.7492 8.97088 17.6979 8.31739 17.4225 7.72569C17.1093 7.05294 16.5475 6.54509 15.7357 6.32168C14.4571 5.9698 13.5647 6.9317 13.2792 7.63546C13.0488 8.20356 12.8477 8.60006 12.5924 9.10289L12.4889 9.30687ZM23.5 20.3181L24.9627 21.7809C24.9873 21.6075 25 21.4302 25 21.25V17.75C25 17.3358 24.6642 17 24.25 17C23.8358 17 23.5 17.3358 23.5 17.75V20.3181ZM21.25 3C23.3211 3 25 4.67893 25 6.75V10.25C25 10.6642 24.6642 11 24.25 11C23.8358 11 23.5 10.6642 23.5 10.25V6.75C23.5 5.50736 22.4926 4.5 21.25 4.5H17.75C17.3358 4.5 17 4.16421 17 3.75C17 3.33579 17.3358 3 17.75 3H21.25ZM3 21.25C3 23.3211 4.67893 25 6.75 25H10.25C10.6642 25 11 24.6642 11 24.25C11 23.8358 10.6642 23.5 10.25 23.5H6.75C5.50736 23.5 4.5 22.4926 4.5 21.25V17.75C4.5 17.3358 4.16421 17 3.75 17C3.33579 17 3 17.3358 3 17.75V21.25Z" fill="#212121"/>
</svg>

<svg xmlns="http://www.w3.org/2000/svg" width="28" height="28"><path d="M3.28 2.22a.75.75 0 1 0-1.06 1.06l1.4 1.402A3.732 3.732 0 0 0 3 6.75v3.5a.75.75 0 0 0 1.5 0v-3.5c0-.347.079-.676.22-.97l6.212 6.213-.075.087a3.342 3.342 0 0 1-.382.368l-1.858 1.085a2.742 2.742 0 0 0-1.189 3.342l.526 1.386a2.763 2.763 0 0 0 1.765 1.655l5.414 1.684a3.29 3.29 0 0 0 3.859-1.547l3.228 3.228a2.24 2.24 0 0 1-.97.219h-3.5a.75.75 0 0 0 0 1.5h3.5c.764 0 1.475-.229 2.068-.621l1.401 1.401a.75.75 0 0 0 1.061-1.06L3.28 2.22Zm2.94.817L7.681 4.5h2.568a.75.75 0 0 0 0-1.5h-3.5c-.18 0-.357.013-.53.037Zm6.269 6.27 7.532 7.532.615-2.074c.526-1.773-.818-3.53-2.659-3.53h-.431c.12-.542.224-1.177.213-1.744-.01-.52-.061-1.174-.337-1.765-.313-.673-.875-1.18-1.686-1.404-1.279-.352-2.171.61-2.457 1.313-.23.569-.431.965-.687 1.468l-.103.204ZM23.5 20.318l1.463 1.463A3.86 3.86 0 0 0 25 21.25v-3.5a.75.75 0 0 0-1.5 0v2.568ZM21.25 3A3.75 3.75 0 0 1 25 6.75v3.5a.75.75 0 0 1-1.5 0v-3.5a2.25 2.25 0 0 0-2.25-2.25h-3.5a.75.75 0 0 1 0-1.5h3.5ZM3 21.25A3.75 3.75 0 0 0 6.75 25h3.5a.75.75 0 0 0 0-1.5h-3.5a2.25 2.25 0 0 1-2.25-2.25v-3.5a.75.75 0 0 0-1.5 0v3.5Z"/></svg>
